assets/img/165x72-pats.svg

<svg height="73" viewBox="0 0 165 73" width="165" xmlns="http://www.w3.org/2000/svg"><g fill="#010914" transform=""><path d="m145.786026 6.05484413s-17.864098-5.95838496-31.208805-6.05110125c-11.395193-.07976327-23.2953808 1.11600414-33.9486256 3.5225372.8331375 3.20757451 1.4728434 6.18404004 2.2196275 9.25390362 6.2354054-.5358456 12.2400746-.3122358 17.6547771 1.7207052-5.6689269.3960894-11.2100511 1.0212426-16.5701785 2.531291 0 0 1.5529793 6.2406242 1.9999444 7.9715555 8.3210124-1.8413727 17.4226591-1.5332274 24.5312701 2.3329054-20.0243141-.0538572-24.4200469 5.1764322-36.0128165 6.9871268 41.1864205 5.6890986 65.3632965 38.1152568 65.3632965 38.1152568 1.673184-.9360255 3.356729-2.2026936 4.404023-3.8906754 1.245561-2.0915704 1.691145-5.0925785.104315-7.1643784l1.35264-3.4829965-.014508-2.6062821 4.299017-2.4760703c-.864915-3.5804848-1.385799-7.4568437-2.345358-11.0557355 2.745347-1.4991406 5.518327-2.9042014 8.341047-4.2390432 0 0 8.159358-27.8285211 9.044308-31.64488712-6.154579 1.82501105-13.172691 1.82978321-19.213974.17588825zm-4.905563 45.28099877-1.040386 1.2871202c1.159899.4226772 2.454509 1.1800875 3.59161 1.6293524l-.084281 1.420059-3.137736.083172c-1.432085 1.0430582-2.556752 2.0547566-3.987455 3.0964513 0 0 3.071418-.5147117 4.665156-.9435246l2.957431-.0013634c-.320544.8583074-.671484 1.6020829-1.043149 2.367674l-2.921508.1199858s1.774044 2.0833895 2.997499 3.4230035c1.374055 2.2995003-2.402697 5.1212114-2.402697 5.1212114-6.759743-7.4486629-14.105998-15.2715997-23.075007-20.3055487.91051-1.3927895 2.265913-2.1358833 3.868632-1.9674942 3.335313.638788 6.202937 2.8592067 7.002914 3.694335 1.037623 1.0894164 2.927726 3.8824946 3.491441 4.2819927-.281858-2.2415526-1.092198-4.509693-1.638642-6.7648803l-10.115091-6.8453253c1.062492-2.788306 4.721804-4.738075 7.912043-4.8280644 3.092142-.0893076 6.111747-.0627198 8.400458 1.721387-5.275847-.0709007-7.175621 2.5490162-7.955565 4.9521405-.039377.1888413 10.777593-.0415859 10.777593-.0415859.406207-1.0962338.570623-2.277003 1.365765-3.2014389.829684-1.1862231 2.359866-1.599356 3.689708-1.6307159.252843.8794413 2.625143 13.2052536 2.625143 13.2052536-2.069027.0381773-3.856888-.0040904-5.943876.1268032zm9.489201-19.9469549c-2.232063-2.1631528-4.645813-4.6235431-6.902745-6.8800939-3.120466 1.066919-6.293435 1.9954454-9.413901 3.0378219 1.687-2.3213159 3.756027-4.6139988 5.368418-7.0273492-1.700817-1.9743116-3.585393-3.7761436-5.500366-5.7640898 3.04862.6087915 8.533788 2.0227148 8.533788 2.0227148l4.062754-5.1907486c.232118.4376754 1.020351 5.008043 1.419649 6.6108077 2.627907.7846797 5.409177 1.3287062 7.965928 2.1420189l-7.085814 2.3779001c.281858 2.7821704 1.167498 5.7286394 1.552289 8.6710181z"/><g transform="translate(0 4.02439)"><path d="m83.2617132 14.097766c-11.1787581 2.3123895-23.1051116 9.5504063-42.8391473 12.3836776 0 0 15.5677776 3.1701128 44.9129659-4.6933697-.5565586-2.1969398-1.4138105-4.9799565-2.0738186-7.6903079z"/><path d="m79.585806.59015168c-25.2278964 5.61289253-49.7385425 19.49673702-79.43614899 23.48043062 41.75982369 1.3100145 45.57366369-6.916795 81.66721089-14.3938605 0 0-1.4372591-6.05499695-2.2310619-9.08657012z"/></g></g></svg>

<?xml version="1.0" encoding="UTF-8"?>
<svg width="165px" height="73px" viewBox="0 0 165 73" version="1.1" xmlns="http://www.w3.org/2000/svg" xmlns:xlink="http://www.w3.org/1999/xlink">
    <!-- Generator: Sketch 48.2 (47327) - http://www.bohemiancoding.com/sketch -->
    <title>165x72-pats</title>
    <desc>Created with Sketch.</desc>
    <defs></defs>
    <g id="Artboard" stroke="none" stroke-width="1" fill="none" fill-rule="evenodd" transform="translate(-345.000000, -2408.000000)">
        <g id="165x72-pats" transform="translate(345.000000, 2408.000000)" fill="#0C2340" fill-rule="nonzero">
            <path d="M145.786026,6.05484413 C145.786026,6.05484413 127.921928,0.0964591717 114.577221,0.00374288396 C103.182028,-0.076020393 91.2818402,1.11974702 80.6285954,3.52628008 C81.4617329,6.73385459 82.1014388,9.71032012 82.8482229,12.7801837 C89.0836283,12.2443381 95.0882975,12.4679479 100.503,14.5008889 C94.8340731,14.8969783 89.2929489,15.5221315 83.9328215,17.0321799 C83.9328215,17.0321799 85.4858008,23.2728041 85.9327659,25.0037354 C94.2537783,23.1623627 103.355425,23.470508 110.464036,27.3366408 C90.4397219,27.2827836 86.0439891,32.513073 74.4512195,34.3237676 C115.63764,40.0128662 139.814516,72.4390244 139.814516,72.4390244 C141.4877,71.5029989 143.171245,70.2363308 144.218539,68.548349 C145.4641,66.4567786 145.909684,63.4557705 144.322854,61.3839706 L145.675494,57.9009741 L145.660986,55.294692 L149.960003,52.8186217 C149.095088,49.2381369 148.574204,45.361778 147.614645,41.7628862 C150.359992,40.2637456 153.132972,38.8586848 155.955692,37.523843 C155.955692,37.523843 164.11505,9.6953219 165,5.87895588 C158.845421,7.70396693 151.827309,7.70873909 145.786026,6.05484413 Z M140.880463,51.3358429 L139.840077,52.6229631 C140.999976,53.0456403 142.294586,53.8030506 143.431687,54.2523155 L143.347406,55.6723745 L140.20967,55.7555465 C138.777585,56.7986047 137.652918,57.8103031 136.222215,58.8519978 C136.222215,58.8519978 139.293633,58.3372861 140.887371,57.9084732 L143.844802,57.9071098 C143.524258,58.7654172 143.173318,59.5091927 142.801653,60.2747838 L139.880145,60.3947696 C139.880145,60.3947696 141.654189,62.4781591 142.877644,63.8177731 C144.251699,66.1172734 140.474947,68.9389845 140.474947,68.9389845 C133.715204,61.4903216 126.368949,53.6673848 117.39994,48.6334358 C118.31045,47.2406463 119.665853,46.4975525 121.268572,46.6659416 C124.603885,47.3047296 127.471509,49.5251483 128.271486,50.3602766 C129.309109,51.449693 131.199212,54.2427712 131.762927,54.6422693 C131.481069,52.4007167 130.670729,50.1325763 130.124285,47.877389 L120.009194,41.0320637 C121.071686,38.2437577 124.730998,36.2939887 127.921237,36.2039993 C131.013379,36.1146917 134.032984,36.1412795 136.321695,37.9253863 C131.045848,37.8544856 129.146074,40.4744025 128.36613,42.8775268 C128.326753,43.0663681 139.143723,42.8359409 139.143723,42.8359409 C139.54993,41.7397071 139.714346,40.5589379 140.509488,39.634502 C141.339172,38.4482789 142.869354,38.035146 144.199196,38.0037861 C144.452039,38.8832274 146.824339,51.2090397 146.824339,51.2090397 C144.755312,51.247217 142.967451,51.2049493 140.880463,51.3358429 Z M150.369664,31.388888 C148.137601,29.2257352 145.723851,26.7653449 143.466919,24.5087941 C140.346453,25.5757131 137.173484,26.5042395 134.053018,27.546616 C135.740018,25.2253001 137.809045,22.9326172 139.421436,20.5192668 C137.720619,18.5449552 135.836043,16.7431232 133.92107,14.755177 C136.96969,15.3639685 142.454858,16.7778918 142.454858,16.7778918 L146.517612,11.5871432 C146.74973,12.0248186 147.537963,16.5951862 147.937261,18.1979509 C150.565168,18.9826306 153.346438,19.5266571 155.903189,20.3399698 L148.817375,22.7178699 C149.099233,25.5000403 149.984873,28.4465093 150.369664,31.388888 Z" id="Shape"></path>
            <g id="Group" transform="translate(0.000000, 4.024390)">
                <path d="M83.2617132,14.097766 C72.0829551,16.4101555 60.1566016,23.6481723 40.4225659,26.4814436 C40.4225659,26.4814436 55.9903435,29.6515564 85.3355318,21.7880739 C84.7789732,19.5911341 83.9217213,16.8081174 83.2617132,14.097766 Z" id="Shape"></path>
                <path d="M79.585806,0.590151677 C54.3579096,6.20304421 29.8472635,20.0868887 0.149657012,24.0705823 C41.9094807,25.3805968 45.7233207,17.1537873 81.8168679,9.6767218 C81.8168679,9.6767218 80.3796088,3.62172485 79.585806,0.590151677 Z" id="Shape"></path>
            </g>
        </g>
    </g>
</svg>
